icons/outline/filter-2-pin.svg

<svg width="24" height="24" viewBox="0 0 24 24" fill="none" xmlns="http://www.w3.org/2000/svg">
<path d="M4 6H20" stroke="black" stroke-width="2" stroke-linecap="round" stroke-linejoin="round"/>
<path d="M6 12H16" stroke="black" stroke-width="2" stroke-linecap="round" stroke-linejoin="round"/>
<path d="M9 18H12" stroke="black" stroke-width="2" stroke-linecap="round" stroke-linejoin="round"/>
<path d="M19 18V18.01M21.121 20.121C21.5407 19.7015 21.8265 19.167 21.9423 18.585C22.0581 18.003 21.9988 17.3998 21.7717 16.8515C21.5447 16.3033 21.1602 15.8347 20.6668 15.505C20.1734 15.1754 19.5934 14.9994 19 14.9994C18.4066 14.9994 17.8266 15.1754 17.3332 15.505C16.8398 15.8347 16.4553 16.3033 16.2283 16.8515C16.0012 17.3998 15.9419 18.003 16.0577 18.585C16.1735 19.167 16.4594 19.7015 16.879 20.121C17.297 20.54 18.004 21.166 19 22C20.051 21.11 20.759 20.484 21.121 20.121Z" stroke="black" stroke-width="2" stroke-linecap="round" stroke-linejoin="round"/>
</svg>

<!--
category: Sytem
-->
<svg
  xmlns="http://www.w3.org/2000/svg"
  width="24"
  height="24"
  viewBox="0 0 24 24"
  fill="none"
  stroke="currentColor"
  stroke-width="2"
  stroke-linecap="round"
  stroke-linejoin="round"
>
  <path d="M4 6h16" stroke="black" stroke-width="2" stroke-linecap="round" stroke-linejoin="round" />
  <path d="M6 12h10" stroke="black" stroke-width="2" stroke-linecap="round" stroke-linejoin="round" />
  <path d="M9 18h3" stroke="black" stroke-width="2" stroke-linecap="round" stroke-linejoin="round" />
  <path d="M19 18v.01m2.121 2.111c.42 -.419 .706 -.954 .821 -1.536c.116 -.582 .056 -1.185 -.17 -1.733c-.227 -.548 -.611 -1.017 -1.105 -1.347c-.493 -.33 -1.073 -.506 -1.667 -.506c-.593 0 -1.173 .176 -1.667 .506c-.493 .33 -.878 .798 -1.105 1.347c-.227 .548 -.286 1.151 -.17 1.733c.116 .582 .402 1.116 .821 1.536c.418 .419 1.125 1.045 2.121 1.879c1.051 -.89 1.759 -1.516 2.121 -1.879z" stroke="black" stroke-width="2" stroke-linecap="round" stroke-linejoin="round" />
</svg>
